packages/icons/svgs/solid/Source=plus.svg

<svg xmlns="http://www.w3.org/2000/svg" width="12" height="12" viewBox="0 0 12 12"><g clip-path="url(#a)"><path d="M11.25 5.25h-4.5V.75C6.75.3 6.45 0 6 0s-.75.3-.75.75v4.5H.75C.3 5.25 0 5.55 0 6s.3.75.75.75h4.5v4.5c0 .45.3.75.75.75s.75-.3.75-.75v-4.5h4.5c.45 0 .75-.3.75-.75s-.3-.75-.75-.75Z"/></g><defs><clipPath id="a"><path fill="#fff" d="M0 0h12v12H0z"/></clipPath></defs></svg>

<svg width="12" height="12" viewBox="0 0 12 12" fill="none" xmlns="http://www.w3.org/2000/svg">
<g clip-path="url(#clip0_1602_933)">
<path d="M11.25 5.25H6.75V0.75C6.75 0.3 6.45 0 6 0C5.55 0 5.25 0.3 5.25 0.75V5.25H0.75C0.3 5.25 0 5.55 0 6C0 6.45 0.3 6.75 0.75 6.75H5.25V11.25C5.25 11.7 5.55 12 6 12C6.45 12 6.75 11.7 6.75 11.25V6.75H11.25C11.7 6.75 12 6.45 12 6C12 5.55 11.7 5.25 11.25 5.25Z" fill="black"/>
</g>
<defs>
<clipPath id="clip0_1602_933">
<rect width="12" height="12" fill="white"/>
</clipPath>
</defs>
</svg>
